X:1
T:Entends Nos Prieres 
%%score 1 2 3 4
L:1/8
Q:1/4=80
M:2/4
K:E
V:1 treble nm="Womens Voices"
V:2 treble nm="Mens Voices"
V:3 treble nm="Piano"
V:4 bass nm="Piano"
V:1
"E" BB GE |"A" c2"E" B2 | B G2 E |"B7" F4 |"E" BB GE |"A" c2"E" B2 | G"B7" E2 F |"E" E4 |] %8
w: en tends nos pri|è res|en tends nos|voix|en tends nos pri|èr es|mon ter vers|toi|
V:2
 GG EE | E2 G2 | G E2 C | !tenuto!D4 | GG EE | E2 G2 | E C2 D | x4 |] %8
V:3
 BB BG | A2 B2 | B c2 A | B4 | BB BG | A2 B2 | B A2 A | G4 |] %8
V:4
 E,E, E,E, | A,,2 E,2 | E, C,2 E, | B,,4 | E,E, E,E, | A,,2 E,2 | E, E,2 B,, | E,4 |] %8

